icons/times-outline.svg

<svg width="24" height="24" viewBox="0 0 24 24" fill="none" xmlns="http://www.w3.org/2000/svg">
<path d="M2 12C2 6.477 6.477 2 12 2C17.523 2 22 6.477 22 12C22 17.522 17.523 22 12 22C6.477 22 2 17.522 2 12ZM4 12C4 14.1217 4.84285 16.1566 6.34315 17.6569C7.84344 19.1571 9.87827 20 12 20C14.1217 20 16.1566 19.1571 17.6569 17.6569C19.1571 16.1566 20 14.1217 20 12C20 9.87827 19.1571 7.84344 17.6569 6.34315C16.1566 4.84285 14.1217 4 12 4C9.87827 4 7.84344 4.84285 6.34315 6.34315C4.84285 7.84344 4 9.87827 4 12ZM8.757 7.343L12 10.586L15.243 7.343C15.706 6.863 16.177 6.863 16.657 7.343C17.137 7.823 17.137 8.294 16.657 8.757L13.414 12L16.657 15.243C17.128 15.714 17.128 16.185 16.657 16.657C16.185 17.128 15.714 17.128 15.243 16.657L12 13.414L8.757 16.657C8.297 17.139 7.825 17.139 7.343 16.657C6.861 16.175 6.861 15.703 7.343 15.243L10.586 12L7.343 8.757C6.871 8.287 6.871 7.815 7.343 7.343C7.815 6.871 8.287 6.871 8.757 7.343Z" fill="#3A3A47"/>
</svg>

<svg xmlns="http://www.w3.org/2000/svg" width="24" height="24" viewBox="0 0 24 24">
    <path fill="#3A3A47" fill-rule="evenodd" d="M12 2c5.523 0 10 4.477 10 10 0 5.522-4.477 10-10 10S2 17.522 2 12C2 6.477 6.477 2 12 2zm0 2a8 8 0 1 0 0 16 8 8 0 0 0 0-16zm4.657 3.343c.48.48.48.951 0 1.414L13.414 12l3.243 3.243c.471.471.471.942 0 1.414-.472.471-.943.471-1.414 0L12 13.414l-3.243 3.243c-.46.482-.932.482-1.414 0-.482-.482-.482-.954 0-1.414L10.586 12 7.343 8.757c-.472-.47-.472-.942 0-1.414s.944-.472 1.414 0L12 10.586l3.243-3.243c.463-.48.934-.48 1.414 0z"/>
</svg>
